content/use/scribus/icon.svg

<?xml version="1.0" encoding="UTF-8" standalone="no"?>
<!-- Created with Inkscape (http://www.inkscape.org/) -->

<svg
   xmlns:dc="http://purl.org/dc/elements/1.1/"
   xmlns:cc="http://creativecommons.org/ns#"
   xmlns:rdf="http://www.w3.org/1999/02/22-rdf-syntax-ns#"
   xmlns:svg="http://www.w3.org/2000/svg"
   xmlns="http://www.w3.org/2000/svg"
   xmlns:xlink="http://www.w3.org/1999/xlink"
   xmlns:sodipodi="http://sodipodi.sourceforge.net/DTD/sodipodi-0.dtd"
   xmlns:inkscape="http://www.inkscape.org/namespaces/inkscape"
   id="svg1"
   sodipodi:version="0.32"
   inkscape:version="0.92.4 (unknown)"
   width="178.71339mm"
   height="174.64267mm"
   sodipodi:docname="icon.svg"
   version="1.1">
  <metadata
     id="metadata46">
    <rdf:RDF>
      <cc:Work
         rdf:about="">
        <dc:format>image/svg+xml</dc:format>
        <dc:type
           rdf:resource="http://purl.org/dc/dcmitype/StillImage" />
        <dc:title></dc:title>
      </cc:Work>
    </rdf:RDF>
  </metadata>
  <defs
     id="defs3">
    <linearGradient
       id="linearGradient665">
      <stop
         style="stop-color:#ffffff;stop-opacity:0.285714;"
         offset="0.00000000"
         id="stop666" />
      <stop
         style="stop-color:#daecf8;stop-opacity:1;"
         offset="1.00000000"
         id="stop667" />
    </linearGradient>
    <linearGradient
       id="linearGradient624">
      <stop
         style="stop-color:#b9e5ff;stop-opacity:0.419643;"
         offset="0.00000000"
         id="stop625" />
      <stop
         style="stop-color:#ffffff;stop-opacity:1;"
         offset="1.00000000"
         id="stop626" />
    </linearGradient>
    <linearGradient
       id="linearGradient619">
      <stop
         style="stop-color:#66b8ff;stop-opacity:1;"
         offset="0.00000000"
         id="stop620" />
      <stop
         style="stop-color:#00507a;stop-opacity:1;"
         offset="1.00000000"
         id="stop621" />
    </linearGradient>
    <linearGradient
       id="linearGradient604">
      <stop
         style="stop-color:#838383;stop-opacity:1;"
         offset="0.00000000"
         id="stop605" />
      <stop
         style="stop-color:#2c2c2c;stop-opacity:1;"
         offset="1.00000000"
         id="stop606" />
    </linearGradient>
    <linearGradient
       id="linearGradient598">
      <stop
         style="stop-color:#e1dedd;stop-opacity:0.866071;"
         offset="0.00000000"
         id="stop599" />
      <stop
         style="stop-color:#2c2c2c;stop-opacity:1;"
         offset="1.00000000"
         id="stop600" />
    </linearGradient>
    <linearGradient
       id="linearGradient593">
      <stop
         style="stop-color:#fff9db;stop-opacity:0.732143;"
         offset="0.00000000"
         id="stop594" />
      <stop
         style="stop-color:#2c2c2c;stop-opacity:1;"
         offset="1.00000000"
         id="stop595" />
    </linearGradient>
    <linearGradient
       id="linearGradient586">
      <stop
         style="stop-color:#6e6969;stop-opacity:1;"
         offset="0.00000000"
         id="stop587" />
      <stop
         style="stop-color:#2c2c2c;stop-opacity:1;"
         offset="1.00000000"
         id="stop588" />
    </linearGradient>
    <linearGradient
       id="linearGradient578">
      <stop
         style="stop-color:#fff2bc;stop-opacity:1;"
         offset="0.00000000"
         id="stop579" />
      <stop
         style="stop-color:#83560b;stop-opacity:1;"
         offset="1.00000000"
         id="stop580" />
    </linearGradient>
    <linearGradient
       xlink:href="#linearGradient578"
       id="linearGradient581"
       x1="596.05675"
       y1="231.00583"
       x2="656.45555"
       y2="279.76099"
       gradientTransform="matrix(0.80329146,0,0,1.2448782,-31.424426,-58.668824)"
       gradientUnits="userSpaceOnUse" />
    <radialGradient
       xlink:href="#linearGradient578"
       id="radialGradient582"
       cx="0.5"
       cy="0.5"
       r="0.5"
       fx="0.5"
       fy="0.5" />
    <linearGradient
       xlink:href="#linearGradient593"
       id="linearGradient590"
       x1="779.71681"
       y1="160.6253"
       x2="908.4478"
       y2="264.66051"
       gradientTransform="matrix(0.74212107,0,0,1.347489,-31.424426,-58.668824)"
       gradientUnits="userSpaceOnUse" />
    <linearGradient
       xlink:href="#linearGradient586"
       id="linearGradient592"
       x1="0.19587629"
       y1="0.4921875"
       x2="0.31958762"
       y2="0.5390625" />
    <linearGradient
       xlink:href="#linearGradient598"
       id="linearGradient597"
       x1="0.49333334"
       y1="0.2578125"
       x2="0.66666669"
       y2="0.3828125" />
    <linearGradient
       xlink:href="#linearGradient604"
       id="linearGradient603"
       x1="0.83076924"
       y1="0.375"
       x2="0.43835616"
       y2="0.109375" />
    <linearGradient
       xlink:href="#linearGradient665"
       id="linearGradient618"
       x1="0.4108527"
       y1="0.375"
       x2="0.97674412"
       y2="0.9296875" />
    <linearGradient
       xlink:href="#linearGradient624"
       id="linearGradient623"
       x1="273.63622"
       y1="74.198003"
       x2="411.62374"
       y2="425.91623"
       gradientTransform="matrix(0.71655573,0,0,1.3955649,-31.424426,-58.668824)"
       gradientUnits="userSpaceOnUse" />
    <linearGradient
       xlink:href="#linearGradient619"
       id="linearGradient664"
       x1="34.350778"
       y1="-72.169076"
       x2="332.64537"
       y2="598.45589"
       gradientUnits="userSpaceOnUse"
       gradientTransform="matrix(0.832278,0,0,0.846654,40.228564,107.82168)" />
    <linearGradient
       inkscape:collect="always"
       xlink:href="#linearGradient619"
       id="linearGradient853"
       x1="27.984485"
       y1="-79.004845"
       x2="332.46687"
       y2="605.53151"
       gradientUnits="userSpaceOnUse"
       gradientTransform="matrix(0.854246,0,0,0.873855,31.116124,105.13618)" />
  </defs>
  <sodipodi:namedview
     id="base"
     pagecolor="#ffffff"
     bordercolor="#666666"
     borderopacity="1.0"
     inkscape:pageopacity="0.0"
     inkscape:pageshadow="2"
     inkscape:zoom="1"
     inkscape:cx="129.25297"
     inkscape:cy="207.20008"
     inkscape:window-width="1920"
     inkscape:window-height="1016"
     inkscape:window-x="0"
     inkscape:window-y="27"
     showgrid="false"
     fit-margin-top="0"
     fit-margin-left="0"
     fit-margin-right="0"
     fit-margin-bottom="0"
     inkscape:window-maximized="1"
     inkscape:current-layer="svg1" />
  <ellipse
     style="font-size:12px;fill:url(#linearGradient853);fill-opacity:1;fill-rule:evenodd;stroke:#000000;stroke-width:13.26275349;stroke-dasharray:none;stroke-opacity:1"
     id="path653"
     cx="322.62756"
     cy="330.03342"
     rx="316.07101"
     ry="323.32635" />
  <ellipse
     style="font-size:12px;fill:url(#linearGradient664);fill-opacity:1;fill-rule:evenodd;stroke:none;stroke-width:12.88575077;stroke-dasharray:none;stroke-opacity:1"
     id="path869"
     cx="324.24344"
     cy="325.71838"
     rx="307.94287"
     ry="313.26199" />
  <ellipse
     style="font-size:12px;fill:#060000;fill-opacity:1;fill-rule:evenodd;stroke:#000000;stroke-width:0.70237595pt"
     id="path686"
     transform="matrix(0.7651989,0.64379395,-0.73696278,0.67593333,0,0)"
     cx="459.11102"
     cy="-324.75055"
     rx="95.980186"
     ry="56.153801" />
  <path
     style="font-size:12px;fill:url(#linearGradient623);fill-opacity:0.75;fill-rule:evenodd;stroke:#f6f7f7;stroke-width:0.97798303pt;stroke-opacity:0.39285697"
     d="m 282.60173,574.44022 c 0,0 -86.23998,-136.49165 -19.30338,-274.3994 C 316.49677,189.18371 333.00769,87.115966 289.73833,14.900984 212.8929,24.479963 145.99691,63.752776 112.85211,97.289716 62.6463,146.21664 38.623025,197.51025 27.744862,233.3667 42.249079,410.17607 283.81041,578.14951 282.60173,574.44022 Z"
     id="path622"
     sodipodi:nodetypes="cscscc"
     inkscape:connector-curvature="0" />
  <path
     style="font-size:12px;fill:url(#linearGradient581);fill-rule:evenodd;stroke:#323232;stroke-width:5.63506985"
     d="M 304.66633,581.20588 C 302.37601,579.06603 417.38751,408.5386 557.97594,385.3832 558.40803,201.56461 642.92686,133.94618 648.27679,122.43733 636.98067,61.370636 603.81415,38.306277 573.87921,33.447982 523.1419,26.981748 532.66465,49.745166 526.43078,55.806076 492.09816,133.33764 420.19586,242.78727 410.04707,262.3581 381.49128,301.92766 321.01887,497.21994 296.83099,580.81834 Z"
     id="hrot"
     sodipodi:nodetypes="cccccccc"
     inkscape:connector-curvature="0" />
  <ellipse
     style="font-size:12px;fill:#665123;fill-rule:evenodd;stroke-width:2.36661649"
     id="path583"
     transform="matrix(0.8311385,0.55606546,-0.51485829,0.8572753,0,0)"
     cx="509.63202"
     cy="12.949934"
     rx="8.6907597"
     ry="24.934229" />
  <path
     style="font-size:12px;fill:#665123;fill-rule:evenodd;stroke:#665123;stroke-width:1.73912001"
     d="m 406.49482,314.56748 -2.2523,-1.69167 c -2.59063,-1.94576 -89.45496,226.06339 -102.85956,266.91313 13.32139,-43.07345 91.7047,-247.25098 105.11186,-265.22146 z"
     id="path585"
     sodipodi:nodetypes="cscc"
     inkscape:connector-curvature="0" />
  <path
     style="font-size:12px;fill:url(#linearGradient590);fill-rule:evenodd;stroke-width:1.00000003pt"
     d="m 455.22416,391.41584 c 30.49706,-23.97635 43.93824,-43.48925 74.13311,-49.43597 -5.21641,-74.96907 52.40446,-165.49775 99.24338,-250.148134 l -8.43467,-15.22022 C 600.79062,105.95656 485.64519,316.80695 455.22416,391.41584 Z"
     id="path589"
     sodipodi:nodetypes="ccccc"
     inkscape:connector-curvature="0" />
</svg>

<svg xmlns="http://www.w3.org/2000/svg" xmlns:xlink="http://www.w3.org/1999/xlink" viewBox="0 0 675.452 660.067"><defs><linearGradient id="A" gradientUnits="userSpaceOnUse"><stop offset="0" stop-color="#66b8ff"/><stop offset="1" stop-color="#00507a"/></linearGradient><linearGradient id="B" x1="447.389" x2="495.907" y1="246.617" y2="271.889" gradientUnits="userSpaceOnUse"><stop offset="0" stop-color="#fff2bc"/><stop offset="1" stop-color="#83560b"/></linearGradient><linearGradient id="C" x1="547.22" x2="642.753" y1="206.605" y2="249.126" gradientUnits="userSpaceOnUse"><stop offset="0" stop-color="#fff9db" stop-opacity=".732"/><stop offset="1" stop-color="#2c2c2c"/></linearGradient><linearGradient id="D" x1="164.653" x2="263.529" y1="225.598" y2="355.003" gradientUnits="userSpaceOnUse"><stop offset="0" stop-color="#b9e5ff" stop-opacity=".42"/><stop offset="1" stop-color="#fff"/></linearGradient><linearGradient id="E" x1="68.819" x2="317.083" y1="46.72" y2="614.505" xlink:href="#A" /><linearGradient id="F" x1="55.021" x2="315.126" y1="36.097" y2="634.286" xlink:href="#A" /></defs><g fill-rule="evenodd"><ellipse cx="322.628" cy="330.033" fill="url(#F)" stroke="#000" stroke-width="13.263" rx="316.071" ry="323.326"/><ellipse cx="324.243" cy="325.718" fill="url(#E)" rx="307.943" ry="313.262"/><ellipse cx="459.111" cy="-324.751" fill="#060000" stroke="#000" stroke-width=".937" rx="95.98" ry="56.154" transform="matrix(.7652 .6438 -.73696 .67593 0 0)"/><path fill="url(#D)" fill-opacity=".75" stroke="#f6f7f7" stroke-opacity=".393" stroke-width="1.304" d="M282.602 574.44s-86.24-136.49-19.304-274.4c53.2-110.856 69.7-212.924 26.44-285.14-76.845 9.58-143.74 48.852-176.886 82.39-50.206 48.927-74.23 100.22-85.107 136.077C42.25 410.177 283.8 578.15 282.602 574.44z"/><path fill="url(#B)" stroke="#323232" stroke-width="5.635" d="M304.666 581.206c-2.3-2.14 112.722-172.667 253.3-195.823.432-183.818 84.95-251.437 90.3-262.946-11.295-61.066-44.462-84.13-74.397-88.99-50.737-6.466-41.214 16.297-47.448 22.358-34.333 77.532-106.235 186.98-116.384 206.552-28.556 39.57-89.028 234.862-113.216 318.46z"/><g fill="#665123"><ellipse cx="509.632" cy="12.95" rx="8.691" ry="24.934" transform="matrix(.83114 .55607 -.51486 .85728 0 0)"/><path stroke="#665123" stroke-width="1.739" d="M406.495 314.567l-2.252-1.69c-2.59-1.946-89.455 226.063-102.86 266.913 13.32-43.074 91.705-247.25 105.112-265.222z"/></g><path fill="url(#C)" d="M455.224 391.416c30.497-23.977 43.938-43.5 74.133-49.436C524.14 267 581.762 176.482 628.6 91.832l-8.435-15.22c-19.375 29.345-134.52 240.195-164.942 314.804z"/></g></svg>
